X: 4042
T: ANNIE LAURIE
R: Strathspey.
%R: strathspey
B: James Kerr "Merry Melodies" v.4 p.07 #42
Z: 2016 John Chambers <jc:trillian.mit.edu>
M: C
L: 1/8
K: D
uF |\
D<D d>c c<B B>d | A<F E>D E3 F |\
D<D d>c c<B B<d | A<F F>E D3 ::\
A |\
d<d e>A f2 (3(ABc) | d<d e>A f2 f>e |\
d>c B<d A<F F>E | D<d F>E D3 :|

%%sep 1 1 500
%%sep 1 1 500

